assets/svg/1f4e4.svg

<svg xmlns="http://www.w3.org/2000/svg" viewBox="0 0 64 64" enable-background="new 0 0 64 64"><path fill="#89664c" d="M24.894 39.03 24.894 51.36 0 64 0 47.47z"/><path fill="#b77e58" d="m24.894 39.03h39.11v12.331h-39.11z"/><path fill="#f2bc97" d="M24.894 51.36 0 64 53.47 64 64 51.36z"/><path fill="#d3976e" d="m35.412 47.47c0 0-.333 6.953-1.735 8.263-2.738 2.555-11.149 2.555-13.887 0-1.403-1.31-1.736-8.263-1.736-8.263h-18.05v16.527h53.47v-16.527h-18.05"/><path fill="#89664c" d="M64 51.36 53.47 64 53.47 47.47 64 39.03z"/><path fill="#881a0e" d="m37.934 0l2.413 5.528c0 0-9.118 5.268-10.958 17.512-1.693 11.27 2.55 19.05 2.55 19.05l1.25.779c0 0-1.429-8.896 3.534-16.833 2.993-4.786 7.06-7.856 8.529-8.795l2.05 4.739 1.503 1.503 11.195-19.446-1.503-1.503-20.563-2.532"/><path fill="#ed4c5c" d="m33.19 42.867c0 0-.124-6.981 4.02-15.374 3.401-6.89 9.06-9.679 9.06-9.679l2.536 5.667 11.195-19.446-20.563-2.533 2.412 5.529c0 0-9.117 5.267-10.957 17.512-1.694 11.27 2.296 18.324 2.296 18.324"/></svg>

<svg xmlns="http://www.w3.org/2000/svg" width="64" height="64" viewBox="0 0 64 64"><path fill="#89664C" d="M24.894 39.026v12.331L0 64V47.473z"/><path fill="#B77E58" d="M24.894 39.026H64v12.331H24.894z"/><path fill="#F2BC97" d="M24.894 51.357L0 64h53.465L64 51.357z"/><path fill="#D3976E" d="M35.412 47.473s-.333 6.953-1.735 8.263c-2.738 2.555-11.149 2.555-13.887 0-1.403-1.31-1.736-8.263-1.736-8.263H0V64h53.465V47.473H35.412z"/><path fill="#89664C" d="M64 51.357L53.465 64V47.473L64 39.026z"/><g><path fill="#881A0E" d="M37.934 0l2.413 5.528s-9.118 5.268-10.958 17.512c-1.693 11.27 2.55 19.048 2.55 19.048l1.25.779s-1.429-8.896 3.534-16.833c2.993-4.786 7.063-7.856 8.529-8.795l2.05 4.739 1.503 1.503L60 4.035l-1.503-1.503L37.934 0z"/><path fill="#ED4C5C" d="M33.188 42.867s-.124-6.981 4.02-15.374c3.401-6.89 9.061-9.679 9.061-9.679l2.536 5.667L60 4.035 39.437 1.502l2.412 5.529s-9.117 5.267-10.957 17.512c-1.694 11.27 2.296 18.324 2.296 18.324z"/></g></svg>
